PortableApps/LibreOfficePortable/App/libreoffice/help/media/icon-themes/cmd/sc_dataconsolidate.svg

<svg viewBox="0 0 16 16" xmlns="http://www.w3.org/2000/svg"><path d="m1 1v14h4v-14zm10 5v4h4v-4z" fill="#fff"/><path d="m0 0v16h6v-16zm1 1h4v3h-4zm0 4h4v6h-4zm0 7h4v3h-4z" fill="#808080"/><path d="m10 5v5h6v-5zm1 1h4v3h-4z" fill="#e68497"/><path d="m6.5 2c-.277 0-.5.223-.5.5s.223.5.5.5h1.5v10h-1.5c-.277 0-.5.223-.5.5s.223.5.5.5h2c.06925 0 .135453-.01383.195312-.03906.179579-.075706.304688-.25319.304688-.46094v-11c0-.277-.223-.5-.5-.5z" fill="#4d82b8"/></svg>

<svg viewBox="0 0 16 16" xmlns="http://www.w3.org/2000/svg">
  <path
   style="fill:#ffffff"
   d="M 1 1 L 1 15 L 5 15 L 5 1 L 1 1 z M 11 6 L 11 10 L 15 10 L 15 6 L 11 6 z "
   />
<path
   d="M 0,0 V 16 H 6 V 0 Z M 1,1 H 5 V 4 H 1 Z m 0,4 h 4 v 6 H 1 Z m 0,7 h 4 v 3 H 1 Z"
   style="fill:#808080"/>
<path
   style="fill:#e68497"
   d="m 10,5 v 5 h 6 V 5 Z m 1,1 h 4 v 3 h -4 z" />
<path
   style="fill:#4d82b8"
   d="M 6.5,2 C 6.223,2 6,2.223 6,2.5 6,2.777 6.223,3 6.5,3 H 8 V 13 H 6.5 C 6.223,13 6,13.223 6,13.5 6,13.777 6.223,14 6.5,14 h 2 C 8.56925,14 8.635453,13.98617 8.695312,13.96094 8.874891,13.885234 9,13.70775 9,13.5 V 2.5 C 9,2.223 8.777,2 8.5,2 Z" />
</svg>
